src/assets/bottle-half-icon.svg

<svg width="9" height="19" viewBox="0 0 9 19" fill="none" xmlns="http://www.w3.org/2000/svg">
<path d="M1.97906 19C0.895288 19 0.0235602 18.251 0 17.3641V9.61826C0 8.92842 0.235602 8.2583 0.706806 7.66701L1.60209 6.54357C1.86126 6.22822 2.02618 5.87344 2.0733 5.49896L2.85079 1.00519H2.5445C2.21466 1.00519 1.9555 0.788382 1.9555 0.512448C1.9555 0.236514 2.21466 0 2.5445 0H3.51047H6.43194C6.76178 0 7.02094 0.216805 7.02094 0.492739C7.02094 0.768672 6.76178 0.985477 6.43194 0.985477H6.12565L6.90314 5.47925C6.97382 5.85373 7.13874 6.20851 7.37435 6.52386L8.26963 7.6473C8.74084 8.21888 8.97644 8.889 8.97644 9.59855V17.3444C8.97644 18.251 8.08115 18.9803 7.02094 19H1.97906ZM7.82199 11.2541V9.59855C7.82199 9.10581 7.65707 8.61307 7.32722 8.19917L6.43194 7.07573C6.07853 6.64212 5.86649 6.14938 5.77225 5.61722L4.9712 0.985477H4.0288L3.22775 5.61722C3.13351 6.12967 2.92147 6.64212 2.56806 7.07573L1.67277 8.19917C1.34293 8.61307 1.17801 9.10581 1.17801 9.59855V11.2541C1.17801 11.5695 1.48429 11.8454 1.88482 11.8454H7.13874C7.51571 11.8454 7.84555 11.5892 7.84555 11.2541H7.82199Z" fill="#F2C247"/>
</svg>

<svg xmlns="http://www.w3.org/2000/svg" width="9" height="19" fill="none" viewBox="0 0 9 19">
    <path fill="#F2C247" d="M1.98 19C.894 19 .023 18.251 0 17.364V9.618c0-.69.236-1.36.707-1.951l.895-1.123c.26-.316.424-.67.471-1.045l.778-4.494h-.306c-.33 0-.59-.217-.59-.493 0-.275.26-.512.59-.512h3.887c.33 0 .589.217.589.493s-.26.492-.59.492h-.305l.777 4.494c.07.375.236.73.471 1.045l.896 1.123c.47.572.706 1.242.706 1.952v7.745c0 .907-.895 1.636-1.955 1.656H1.979Zm5.842-7.746V9.6a2.24 2.24 0 0 0-.495-1.4l-.895-1.123a3.138 3.138 0 0 1-.66-1.459l-.8-4.632h-.943l-.801 4.632a3.23 3.23 0 0 1-.66 1.459l-.895 1.123a2.24 2.24 0 0 0-.495 1.4v1.655c0 .316.306.591.707.591h5.254c.377 0 .707-.256.707-.59h-.024Z"/>
</svg>
